X:1
T:Title
%%score { ( 1 4 ) | ( 2 3 ) }
L:1/8
M:6/4
K:Db
V:1 treble nm="Grand Piano"
V:4 treble 
V:2 bass 
V:3 bass 
V:1
 z6 z4[Q:1/4=138] D2 | F4 F2 F2 _F2 =F2 | A4 G2 F4 [CE]2 | D3 C D2 F4 E2 | %4
[M:5/4] [CE]2- [CE]2- [CE]6 |[M:1/4] D2 |[M:6/4] F4 F2 F2 _F2 =F2 | A4 G2 F4[K:bass] [G,CE]2 | %8
 [F,B,D]2[K:treble] [B,EA]2 [B,EG]2 [A,DF]4[K:bass] [G,CE]2 |[M:5/4] [F,D]2- [F,D]2- [F,D]6 | %10
[M:6/4][K:treble] .[FA]12 | [Af]12 | .e12 | [FA]12 | [GA]6 z6 | [FA]6 z6 | [Ac]6 .[=Gd]6 | e12 | %18
 .[FA]12 | [Af]12 | .e12 | [FA]12 | [Fd]6 z6 | [Gd]6 z6 | z4 [CG]2- [CG]4 z2 |[M:5/4] D2- D2- D6 |] %26
V:2
 z6 z4 [D,F,]2 | z6 .A,6 | [E,A,C]4 [A,B,C]2 [A,C]4 [A,,G,]2 | %3
 [B,,F,B,]3 [B,,F,] [B,,F,B,]2 [E,=G,D]4 [E,G,D]2 |[M:5/4] [A,,A,]2- [A,,A,]2- [A,,A,]6 | %5
[M:1/4] [D,F,]2 |[M:6/4] [D,A,D]4 [D,A,D]2 [D,A,D]2 [D,=G,D]2 [D,A,D]2 | %7
 [E,A,C]4 [A,B,C]2 [A,C]4 A,,2 | B,,2 G,,2 G,,2 A,,4 A,,2 |[M:5/4] D,2- D,2- D,6 | %10
[M:6/4] D,2 D,2 D,2 D,2[K:treble] F2 G2 | [D,D]2 D,2 D,2 D,6 | %12
 G2- [G,G-]2 [G,G-]2 [G,G]2[K:treble] B2 G2 | D,2 D,2 D,2 D,6 | %14
 E,2 E,2 E,2[K:treble] [A,CG]4 [A,CG]2 | [D,D]2 D,2 D,2 [D,A,D]4 [D,A,]2 | %16
 [E,E]2 E,2 E,2 E,2 E,2 E,2 | [A,C]4 A,2 [A,C]6 | [D,D]2 D,2 D,2 D,2[K:treble] F2 G2 | %19
 [D,D]2 D,2 D,2 D,6 | G2- [G,G-]2 [G,G-]2 [G,G]2[K:treble] B2 G2 | D,2 D,2 D,2 D,6 | %22
 [D,A,]2 D,2 D,2 D,4 [D,_C]2 | [G,B,]2 G,2 G,2 G,4 G,2 | A,2 A,2 A,2 A,,2 A,,2 [A,,G,A,]2 | %25
[M:5/4] [D,F,A,]2- [D,F,A,]2- [D,F,A,]6 |] %26
V:3
 x12 | [D,A,D]4 [D,A,D]2 [D,D]2- [D,=G,D]2 [D,A,D]2 | x12 | x12 |[M:5/4] x10 |[M:1/4] x2 | %6
[M:6/4] x12 | x12 | x12 |[M:5/4] x10 |[M:6/4] x8[K:treble] x4 | x12 | .[G,B,]6 z6[K:treble] | x12 | %14
 x6[K:treble] x6 | x12 | x12 | x12 | x8[K:treble] x4 | x12 | .[G,B,]6 z6[K:treble] | x12 | x12 | %23
 x12 | x12 |[M:5/4] x10 |] %26
V:4
 x12 | x12 | x12 | x12 |[M:5/4] x10 |[M:1/4] x2 |[M:6/4] x12 | x10[K:bass] x2 | %8
 x2[K:treble] x8[K:bass] x2 |[M:5/4] x10 |[M:6/4][K:treble] D2 D2 D2 D2 d2 e2 | z2 D2 D2 D6 | %12
 z2 B,2 B,2 B,2 d2 B2 | D2 D2 D2 D6 | C2 C2 C2 B4 A2 | z2 D2 D2 F4 [Fd]2 | z2 E2 E2 E2 E2 [D=GB]2 | %17
 A4- [CA]2 G6 | z2 D2 D2 D2 d2 e2 | z2 D2 D2 D6 | z2 B,2 B,2 B,2 d2 B2 | D2 D2 D2 D6 | %22
 z2 A,2 A,2 [_CFA]4 [Fd]2 | z2 B,2 B,2 [=A,D]4 [A,DE]2 | .[DF]6 A,2 A,2 C2 |[M:5/4] x10 |] %26

